!!!OTL: Die Mordeltern Es waren mal zwei Bauernsoehn'.
!!!ARE: Europa, Osteuropa, UdSSR, Rossiya, Wolga
!!!YOR: 4, S. 308
!!    ????
!!!SCT: Q0085R
!!!YEM: Copyright 1995, estate of Helmut Schaffrath.
**kern
*ICvox
*Ivox
!! Irregular meter.
*MX
*k[f#c#]
*D:
{8a
8f#
8a
=1
4.d
8e
8a
8b
=2
4a
8r}
{8d
8g
8a
=3
8b
8dd
8ccn
8b
=4
4a
8g
8a
=5
4.e
8r}
{4.a
8dd
=6
8b
8ccn
8b
8a
=7
16g
16f#
8e
4d}
{4.a
8dd
=8
8b
8ccn
8b
8a
=9
16g
16f#
8e
4d}
==
!!!AGN: Ballade, Habgier, Mord, Reue, Selbstmord
!!!ONB: ESAC (Essen Associative Code) Database: BALLADE
!!!AMT: irregular
!!!AIN: vox
!!!EED: Helmut Schaffrath
!!!EEV: 1.0
*-
